X:228
T:Oak Tree (reel), The 
B:CRE2.193 (Crann Darach)
F:file ID: cre.2/228oak_t
L:1/8
N:This is an A-B-C-A tune which ends on a "coda", which 
replaces the last measure of the A part when it is repeated.
M:C
R:reel
Q:180
K:D
AG|:FDAD FDAD|FAAF GEFD|A,2EA, CA,EA,|CA,A,B CDEG|
"5"FDAD FDAD|FAAF GEFA|(3Bcd eg (3fga ec|dcce dBAG|
"9"FDAD FDAD|FAAF GEFD|A,2EF (3GFE (3FED|E2 (3EDE GECE|
"13"D2DE FD (3DED|FAAF GEFA|(3Bcd eg (3fga ec|dcce d||
=
P:part B
|:feg|"17"fBB/A/B fa^ge|fece (3f^gf ed|cA (3AGA fAeA|\
cAea fece|
"21"fBB/A/B fa^ge|fece (3fga ec|Ac (3efg a^gae|(3fga ec d:|
=
P:part C
ABc|"25"(3ddd fd (3ddd fd|(3ccc ec (3ccc ec|d2fd d2fg|\
afge dcBc|
"29"d2fd Adfd|c2ec Acec|d2fd Adfg|afge dBAG||
P:Coda at end of part A on final play-through: | afge dBAF | D4-D4 |]

%%%

